carriers/hermes.svg

<svg width="128" height="64" viewBox="0 0 128 64" fill="none" xmlns="http://www.w3.org/2000/svg">
<rect width="128" height="64" rx="6" fill="white"/>
<path fill-rule="evenodd" clip-rule="evenodd" d="M29.9254 28.2956L31.2464 23.1157H6L10.3648 28.2956H29.9254Z" fill="url(#paint0_linear_5_11778)"/>
<path fill-rule="evenodd" clip-rule="evenodd" d="M6 24.4522L10.021 28.2956H10.3648L6 23.1157V24.4522Z" fill="url(#paint1_linear_5_11778)"/>
<path fill-rule="evenodd" clip-rule="evenodd" d="M16.6417 34.3639L12.3618 29.296H29.628L28.3533 34.36L16.6417 34.3639Z" fill="url(#paint2_linear_5_11778)"/>
<path fill-rule="evenodd" clip-rule="evenodd" d="M16.3326 34.3639L12.3618 30.5746V29.296L16.6417 34.3639H16.3326Z" fill="url(#paint3_linear_5_11778)"/>
<path fill-rule="evenodd" clip-rule="evenodd" d="M23.7374 40.7257L19.415 35.6385H28.0211L26.7 40.7257H23.7374Z" fill="url(#paint4_linear_5_11778)"/>
<path fill-rule="evenodd" clip-rule="evenodd" d="M19.415 36.9094L23.4863 40.7257H23.7374L19.415 35.6385V36.9094Z" fill="url(#paint5_linear_5_11778)"/>
<path fill-rule="evenodd" clip-rule="evenodd" d="M27.5654 40.7257H30.0144L31.3122 35.6501H28.8556L27.5654 40.7257Z" fill="url(#paint6_linear_5_11778)"/>
<path fill-rule="evenodd" clip-rule="evenodd" d="M29.2417 34.3175H31.652L32.9653 29.3231H30.4778L29.2417 34.3175Z" fill="url(#paint7_linear_5_11778)"/>
<path fill-rule="evenodd" clip-rule="evenodd" d="M30.8062 28.2569H33.2705L34.5298 23.1157H32.0654L30.8062 28.2569Z" fill="url(#paint8_linear_5_11778)"/>
<path d="M53.9821 40.745C53.4819 40.6729 53.0092 40.4714 52.6108 40.1604C52.2124 39.8494 51.9022 39.4398 51.7108 38.972C51.452 38.4158 51.4405 38.3115 51.4482 37.0407C51.4369 36.2493 51.5133 35.459 51.6761 34.6845C52.1821 32.2935 53.2752 29.663 54.1868 28.6239C55.2027 27.4651 56.5546 26.8857 58.6019 26.7235C60.5834 26.5612 62.2405 26.8162 63.0517 27.4033C63.8628 27.9904 64.1757 28.705 64.1757 30.1883C64.1565 31.3553 63.9518 32.5118 63.5693 33.6145C63.2293 34.387 63.2718 34.387 59.077 34.387H55.4345L55.3379 34.7733C54.8782 36.4999 54.9516 37.2338 55.6469 37.6858C56.1452 38.0102 57.8911 38.13 59.3164 37.9368C60.1703 37.8773 60.9826 37.5457 61.6341 36.9905C62.3834 36.2836 62.4414 36.3763 62.0628 37.8055C61.4448 40.1231 61.3328 40.3278 60.3246 40.6561C59.6023 40.884 54.8975 40.9497 53.9821 40.745ZM61.0122 31.7759C61.2903 30.6711 61.2207 30.1072 60.7572 29.6668C60.0581 29.0102 58.2388 29.0449 57.3388 29.7325C56.8214 30.2189 56.4439 30.8352 56.2456 31.5171L56.0177 32.1467H60.9156L61.0122 31.7759ZM98.6617 40.6909C98.2363 40.6171 97.8348 40.4426 97.4907 40.1818C97.1467 39.9211 96.87 39.5817 96.684 39.1922L96.3402 38.5201V37.0214C96.3051 36.1766 96.3831 35.3309 96.5719 34.5068C97.1552 31.8879 98.1441 29.6437 99.1908 28.5196C100.408 27.2295 101.86 26.7389 104.483 26.7273C107.105 26.7158 108.26 27.2218 108.836 28.6316C109.099 29.2728 109.072 31.2196 108.782 32.3746C108.492 33.5295 108.257 34.0548 107.967 34.2209C107.789 34.3214 106.843 34.36 104.004 34.3986L100.261 34.4527L100.083 35.1364C99.8475 36.048 99.832 36.8244 100.044 37.2184C100.2 37.4553 100.42 37.6429 100.678 37.7591C101.111 37.9716 101.269 37.9909 102.671 37.987C104.757 37.987 105.696 37.736 106.534 36.9634C106.92 36.5772 107.187 36.469 107.187 36.6197C107.187 36.7703 106.375 39.6673 106.256 39.8991C105.869 40.6484 104.803 40.8918 101.651 40.884C99.7393 40.884 99.2681 40.8454 98.6617 40.6909ZM105.92 31.5866C106.271 29.8252 105.657 29.1415 103.814 29.2304C102.37 29.2999 101.671 29.8986 101.111 31.548C101.01 31.8454 100.925 32.1042 100.925 32.1235C100.925 32.1428 102.022 32.1583 103.366 32.1583H105.811L105.92 31.5866ZM34.7073 40.6716C34.5219 40.4862 34.5644 39.9725 34.8773 38.7982C36.3413 33.2437 38.5584 24.5604 38.5584 24.2939C38.5699 24.1991 38.5572 24.1029 38.5214 24.0144C38.4856 23.9259 38.4279 23.848 38.3537 23.7878C38.2422 23.7085 38.1649 23.5898 38.1374 23.4557C38.1374 23.3205 38.3808 23.3011 40.2426 23.3011C42.1044 23.3011 42.367 23.3205 42.5099 23.4672C42.7378 23.6951 42.6954 23.9617 41.8881 27.0557C41.5018 28.4964 41.2314 29.7016 41.2623 29.7325C41.2932 29.7634 42.4559 29.7827 43.8542 29.7827H46.3958L46.4885 29.5625C46.6121 29.2767 47.7439 24.8964 47.8211 24.4136C47.8599 24.3038 47.8616 24.1843 47.8261 24.0733C47.7905 23.9624 47.7196 23.8662 47.6241 23.7994C47.1181 23.3205 47.1954 23.3011 49.4975 23.3011C51.7997 23.3011 51.8769 23.3011 51.8769 23.8265C51.8769 24.0621 50.6641 28.9175 49.4705 33.4832C48.0722 38.8098 47.8366 39.845 47.9486 40.1154C47.995 40.251 48.0846 40.3676 48.2035 40.4476C48.2422 40.4671 48.2752 40.4961 48.2996 40.5319C48.3239 40.5677 48.3387 40.6092 48.3426 40.6523C48.3426 40.7836 48.0568 40.8029 46.1949 40.8029C43.8773 40.8029 43.8194 40.8029 43.8194 40.2815C43.8194 40.127 44.2404 38.3849 44.7503 36.4188C45.2602 34.4527 45.6889 32.7686 45.6889 32.6952C45.6889 32.6218 45.1945 32.5677 43.0662 32.5677H40.4434L39.5164 36.1484C39.0142 38.1338 38.6086 39.8373 38.6086 39.9338C38.6479 40.0819 38.7282 40.2158 38.8404 40.3201C38.964 40.4437 39.049 40.5943 39.0258 40.66C38.9795 40.8377 34.8696 40.8338 34.7073 40.6716ZM64.6122 40.6368C64.5312 40.5602 64.4759 40.4603 64.4538 40.351C64.4538 40.2815 65.2032 37.3806 66.0761 33.9042C67.571 28.0213 67.683 27.5694 67.5478 27.3608C67.4667 27.2372 67.3547 27.1368 67.3045 27.1368C67.2542 27.1368 67.204 27.0673 67.204 26.9861C67.204 26.905 67.4821 26.8394 69.1083 26.8394C71.592 26.8394 71.5032 26.766 71.0706 28.508C71.0319 28.6703 71.1942 28.508 71.5302 28.0677C71.8161 27.6814 72.1637 27.2604 72.2796 27.1097L72.5307 26.8394H74.2805C74.8644 26.8194 75.4491 26.84 76.0302 26.9012C75.8684 27.6664 75.6476 28.4181 75.3697 29.1492C75.1496 29.4892 74.7903 29.5625 73.2298 29.5934C71.9667 29.6205 71.6847 29.6552 71.3603 29.8291C70.6573 30.2153 70.5337 30.5166 69.3131 35.2368C68.695 37.6124 68.1542 39.675 68.1311 39.8218C68.1104 39.9217 68.1163 40.0253 68.1481 40.1222C68.18 40.2191 68.2367 40.306 68.3126 40.3742C68.4116 40.4787 68.4949 40.5971 68.5598 40.7257C67.9257 40.7868 67.2884 40.8075 66.6517 40.7875C65.068 40.7913 64.7551 40.7643 64.6122 40.6368ZM74.6281 40.6368C74.553 40.5615 74.5008 40.4664 74.4775 40.3626C74.4775 40.3008 75.1882 37.4617 76.0611 34.0626C76.9341 30.6634 77.641 27.7625 77.6448 27.6273C77.6271 27.4767 77.5525 27.3385 77.4363 27.2411C77.0075 26.8934 77.162 26.8548 79.1358 26.8548C81.523 26.8548 81.5693 26.8818 81.2024 28.1218C81.1332 28.3008 81.0941 28.4901 81.0865 28.6819C81.1097 28.705 81.2719 28.5119 81.4728 28.257C82.4964 26.8316 82.6586 26.7621 84.8642 26.7621C86.502 26.7621 86.5522 26.7621 87.0775 27.0286C87.3534 27.177 87.591 27.3875 87.7713 27.6437C87.9517 27.8998 88.0699 28.1944 88.1166 28.5042L88.2015 28.8248L88.7384 28.0136C89.5573 26.793 89.6423 26.7621 91.8827 26.7621C93.5861 26.7621 93.729 26.7621 94.2003 26.9939C94.4389 27.0991 94.6602 27.2398 94.8569 27.411C95.1558 27.8161 95.3096 28.31 95.2934 28.8132C95.2934 29.1145 94.7835 31.3394 93.9608 34.6342C93.2153 37.6587 92.6552 40.0613 92.6861 40.1849C92.7292 40.3181 92.8181 40.4318 92.9372 40.5055C93.3891 40.7488 93.084 40.8029 91.1874 40.8029C89.1208 40.8029 89.0088 40.7759 89.0088 40.3317C89.0088 40.2004 89.538 38.0141 90.1676 35.4647C90.7972 32.9153 91.3457 30.675 91.3457 30.4896C91.3457 29.775 90.7277 29.4389 89.6307 29.5625C88.5337 29.6861 88.1359 30.0183 87.7612 30.9415C87.599 31.351 85.5131 39.2154 85.3934 39.8566C85.3511 39.9625 85.3464 40.0798 85.3802 40.1887C85.4139 40.2977 85.484 40.3918 85.5788 40.4553C85.7178 40.5828 85.8028 40.7141 85.768 40.7527C85.1261 40.8128 84.4812 40.8347 83.8367 40.8184C81.832 40.8184 81.72 40.7913 81.72 40.3355C81.72 40.2004 82.253 38.0179 82.8981 35.4956C83.5431 32.9733 84.0916 30.7213 84.0916 30.5012C84.0916 29.7286 83.3693 29.3771 82.1603 29.6089C81.3878 29.7518 81.0401 29.9952 80.7195 30.5514C80.3989 31.1076 78.2011 39.4858 78.2011 40.0111C78.1952 40.0902 78.2099 40.1695 78.2437 40.2412C78.2776 40.313 78.3294 40.3747 78.3942 40.4205C78.4426 40.4455 78.4852 40.4805 78.5191 40.5231C78.5531 40.5657 78.5777 40.615 78.5912 40.6677C78.5912 40.7604 78.1509 40.7913 76.683 40.7913C75.0916 40.7913 74.7594 40.7643 74.6281 40.6368ZM109.601 40.5596C109.45 40.3317 109.466 40.2235 109.867 38.663C110.196 37.3845 110.331 37.0021 110.462 36.9789C110.593 36.9557 110.675 37.0407 110.748 37.1952C110.922 37.5815 111.246 37.7398 112.127 37.8557C113.251 38.0064 115.99 37.9214 116.438 37.7205C116.665 37.6126 116.863 37.4506 117.014 37.2486C117.165 37.0466 117.264 36.8108 117.303 36.5617C117.373 36.3814 117.38 36.183 117.325 35.9978C117.27 35.8125 117.155 35.6509 116.998 35.5381C116.285 35.266 115.556 35.0365 114.815 34.8505C112.656 34.2518 112.092 33.9814 111.725 33.3557C111.521 33.0003 111.501 32.8767 111.544 31.9806C111.633 29.9063 112.625 27.9016 113.861 27.2681C114.634 26.8818 115.175 26.8239 118.67 26.8239H122L121.764 27.7509C121.471 28.8286 121.316 29.1492 121.015 29.3153C120.86 29.4042 120.103 29.4583 118.481 29.493C116.492 29.5355 116.133 29.5625 115.905 29.7132C115.739 29.82 115.598 29.9618 115.493 30.1286C115.387 30.2954 115.32 30.4832 115.294 30.6789C115.178 31.3201 115.422 31.4707 117.539 32.1042C120.181 32.8767 120.687 33.1896 120.93 34.1128C121.173 35.036 120.772 37.3536 120.157 38.6514C119.842 39.4256 119.25 40.0547 118.496 40.4167L117.84 40.7411L113.788 40.7682L109.74 40.7991L109.601 40.5596Z" fill="#484649"/>
<defs>
<linearGradient id="paint0_linear_5_11778" x1="8.76568" y1="26.7428" x2="31.3623" y2="24.1973" gradientUnits="userSpaceOnUse">
<stop stop-color="#EEF7FE"/>
<stop offset="1" stop-color="#1E97D0"/>
</linearGradient>
<linearGradient id="paint1_linear_5_11778" x1="6.07339" y1="23.8535" x2="10.5348" y2="28.2222" gradientUnits="userSpaceOnUse">
<stop stop-color="#D6E9F7"/>
<stop offset="1" stop-color="#48A2D7"/>
</linearGradient>
<linearGradient id="paint2_linear_5_11778" x1="15.2163" y1="32.9347" x2="29.7207" y2="29.8291" gradientUnits="userSpaceOnUse">
<stop stop-color="#D4EAF7"/>
<stop offset="1" stop-color="#1493C5"/>
</linearGradient>
<linearGradient id="paint3_linear_5_11778" x1="12.0258" y1="29.5432" x2="16.4022" y2="34.6574" gradientUnits="userSpaceOnUse">
<stop stop-color="#D9EBF7"/>
<stop offset="1" stop-color="#318ABB"/>
</linearGradient>
<linearGradient id="paint4_linear_5_11778" x1="21.9876" y1="38.6978" x2="28.0713" y2="35.7583" gradientUnits="userSpaceOnUse">
<stop stop-color="#9DC4DF"/>
<stop offset="1" stop-color="#137EAB"/>
</linearGradient>
<linearGradient id="paint5_linear_5_11778" x1="19.0558" y1="35.8549" x2="23.4786" y2="41.0386" gradientUnits="userSpaceOnUse">
<stop stop-color="#DEEEF8"/>
<stop offset="1" stop-color="#3586B3"/>
</linearGradient>
<linearGradient id="paint6_linear_5_11778" x1="29.4388" y1="40.7798" x2="29.4388" y2="35.5999" gradientUnits="userSpaceOnUse">
<stop stop-color="#646368"/>
<stop offset="1" stop-color="#646368"/>
</linearGradient>
<linearGradient id="paint7_linear_5_11778" x1="31.0842" y1="34.3677" x2="31.0842" y2="29.3231" gradientUnits="userSpaceOnUse">
<stop stop-color="#636267"/>
<stop offset="1" stop-color="#646368"/>
</linearGradient>
<linearGradient id="paint8_linear_5_11778" x1="32.668" y1="28.2685" x2="32.668" y2="23.1389" gradientUnits="userSpaceOnUse">
<stop stop-color="#6B6A6F"/>
<stop offset="1" stop-color="#EAEBED"/>
</linearGradient>
</defs>
</svg>

<svg xmlns="http://www.w3.org/2000/svg" width="128" height="64" fill="none"><rect width="128" height="64" fill="#fff" rx="6"/><path fill="url(#a)" fill-rule="evenodd" d="m29.925 28.296 1.321-5.18H6l4.365 5.18h19.56Z" clip-rule="evenodd"/><path fill="url(#b)" fill-rule="evenodd" d="m6 24.452 4.021 3.844h.344L6 23.116v1.336Z" clip-rule="evenodd"/><path fill="url(#c)" fill-rule="evenodd" d="m16.642 34.364-4.28-5.068h17.266l-1.275 5.064-11.711.004Z" clip-rule="evenodd"/><path fill="url(#d)" fill-rule="evenodd" d="m16.333 34.364-3.971-3.79v-1.278l4.28 5.068h-.31Z" clip-rule="evenodd"/><path fill="url(#e)" fill-rule="evenodd" d="m23.737 40.726-4.322-5.087h8.606L26.7 40.725h-2.963Z" clip-rule="evenodd"/><path fill="url(#f)" fill-rule="evenodd" d="m19.415 36.91 4.071 3.816h.251l-4.322-5.087v1.27Z" clip-rule="evenodd"/><path fill="url(#g)" fill-rule="evenodd" d="M27.565 40.726h2.45l1.297-5.076h-2.456l-1.29 5.076Z" clip-rule="evenodd"/><path fill="url(#h)" fill-rule="evenodd" d="M29.242 34.318h2.41l1.313-4.995h-2.487l-1.236 4.995Z" clip-rule="evenodd"/><path fill="url(#i)" fill-rule="evenodd" d="M30.806 28.257h2.464l1.26-5.141h-2.465l-1.259 5.14Z" clip-rule="evenodd"/><path fill="#484649" d="M53.982 40.745a2.901 2.901 0 0 1-2.271-1.773c-.259-.556-.27-.66-.263-1.931-.011-.792.065-1.582.228-2.356.506-2.392 1.6-5.022 2.51-6.061 1.017-1.159 2.369-1.738 4.416-1.9 1.981-.163 3.639.092 4.45.68.81.586 1.124 1.301 1.124 2.784a11.007 11.007 0 0 1-.607 3.427c-.34.772-.297.772-4.492.772h-3.642l-.097.386c-.46 1.727-.386 2.46.309 2.913.498.324 2.244.444 3.67.25a4.002 4.002 0 0 0 2.317-.946c.75-.706.807-.614.429.816-.618 2.317-.73 2.522-1.738 2.85-.723.228-5.428.294-6.343.089Zm7.03-8.97c.278-1.104.209-1.668-.255-2.108-.699-.657-2.518-.622-3.418.066a3.971 3.971 0 0 0-1.093 1.784l-.228.63h4.898l.096-.371Zm37.65 8.916a2.704 2.704 0 0 1-1.978-1.499l-.344-.672v-1.499a9.496 9.496 0 0 1 .232-2.514c.583-2.62 1.572-4.863 2.619-5.987 1.217-1.29 2.669-1.781 5.292-1.793 2.622-.011 3.777.495 4.353 1.905.263.64.236 2.588-.054 3.743-.29 1.154-.525 1.68-.815 1.846-.178.1-1.124.139-3.963.178l-3.743.054-.178.683c-.236.912-.251 1.688-.039 2.082.156.237.376.425.634.541.433.213.591.232 1.993.228 2.086 0 3.025-.251 3.863-1.024.386-.386.653-.494.653-.343 0 .15-.812 3.047-.931 3.28-.387.748-1.453.992-4.605.984-1.912 0-2.383-.039-2.99-.193Zm7.258-9.104c.351-1.762-.263-2.445-2.106-2.357-1.444.07-2.143.669-2.703 2.318a9.978 9.978 0 0 0-.186.576c0 .019 1.097.034 2.441.034h2.445l.109-.571Zm-71.213 9.085c-.185-.186-.143-.7.17-1.874 1.464-5.554 3.681-14.238 3.681-14.504a.564.564 0 0 0-.204-.506.54.54 0 0 1-.217-.332c0-.136.244-.155 2.106-.155 1.861 0 2.124.02 2.267.166.228.228.185.495-.622 3.589-.386 1.44-.657 2.646-.626 2.677.031.03 1.194.05 2.592.05h2.542l.093-.22c.123-.286 1.255-4.667 1.332-5.15a.534.534 0 0 0-.197-.614c-.506-.479-.429-.498 1.873-.498 2.303 0 2.38 0 2.38.526 0 .235-1.213 5.09-2.407 9.656-1.398 5.327-1.633 6.362-1.521 6.632a.657.657 0 0 0 .255.333.255.255 0 0 1 .139.204c0 .132-.286.15-2.148.15-2.318 0-2.376 0-2.376-.52 0-.155.421-1.897.931-3.863s.939-3.65.939-3.724c0-.073-.495-.127-2.623-.127h-2.623l-.927 3.58c-.502 1.986-.907 3.69-.907 3.786.039.148.12.282.231.386.124.124.209.274.186.34-.047.178-4.156.174-4.319.012Zm29.905-.035a.54.54 0 0 1-.158-.286c0-.07.75-2.97 1.622-6.447 1.495-5.883 1.607-6.335 1.472-6.543-.081-.124-.193-.224-.243-.224-.05 0-.101-.07-.101-.15 0-.082.278-.148 1.904-.148 2.484 0 2.395-.073 1.963 1.669-.04.162.123 0 .46-.44.285-.387.633-.808.749-.958l.25-.27h1.75c.584-.02 1.17 0 1.75.061a15.145 15.145 0 0 1-.66 2.248c-.22.34-.58.413-2.14.444-1.263.027-1.545.062-1.87.236-.703.386-.826.688-2.047 5.408-.618 2.375-1.159 4.438-1.182 4.585a.584.584 0 0 0 .182.552c.099.105.182.223.247.352-.634.06-1.272.081-1.908.062-1.584.003-1.897-.024-2.04-.151Zm10.016 0a.563.563 0 0 1-.15-.274c0-.062.71-2.901 1.583-6.3.873-3.4 1.58-6.3 1.584-6.436a.595.595 0 0 0-.209-.386c-.429-.348-.274-.386 1.7-.386 2.387 0 2.433.027 2.066 1.267-.069.179-.108.368-.115.56.023.023.185-.17.386-.425 1.023-1.425 1.186-1.495 3.391-1.495 1.638 0 1.688 0 2.213.267a2.016 2.016 0 0 1 1.04 1.475l.084.32.537-.81c.82-1.221.904-1.252 3.145-1.252 1.703 0 1.846 0 2.317.232.239.105.46.246.657.417.299.405.453.899.436 1.402 0 .302-.51 2.526-1.332 5.821-.746 3.025-1.306 5.427-1.275 5.55a.59.59 0 0 0 .251.322c.452.243.147.297-1.75.297-2.066 0-2.178-.027-2.178-.471 0-.132.529-2.318 1.159-4.867.63-2.55 1.178-4.79 1.178-4.975 0-.715-.618-1.051-1.715-.927-1.097.123-1.495.455-1.87 1.379-.162.409-2.248 8.273-2.368 8.915a.498.498 0 0 0 .186.598c.139.128.224.26.189.298-.642.06-1.287.082-1.931.065-2.005 0-2.117-.027-2.117-.482 0-.136.533-2.318 1.178-4.84.645-2.523 1.194-4.775 1.194-4.995 0-.772-.723-1.124-1.932-.892-.772.143-1.12.386-1.44.942-.321.557-2.519 8.935-2.519 9.46a.46.46 0 0 0 .193.41.386.386 0 0 1 .197.247c0 .092-.44.123-1.908.123-1.591 0-1.924-.027-2.055-.154Zm34.973-.077c-.151-.228-.135-.337.266-1.897.329-1.278.464-1.66.595-1.684.131-.023.213.062.286.216.174.386.498.545 1.379.66 1.124.151 3.863.066 4.311-.134a1.55 1.55 0 0 0 .865-1.16.872.872 0 0 0-.305-1.023 19.303 19.303 0 0 0-2.183-.688c-2.159-.598-2.723-.869-3.09-1.494-.204-.356-.224-.48-.181-1.375.089-2.075 1.081-4.08 2.317-4.713.773-.386 1.314-.444 4.809-.444H122l-.236.927c-.293 1.078-.448 1.398-.749 1.564-.155.09-.912.143-2.534.178-1.989.043-2.348.07-2.576.22a1.35 1.35 0 0 0-.611.966c-.116.641.128.792 2.245 1.425 2.642.773 3.148 1.086 3.391 2.009.243.923-.158 3.24-.773 4.538a3.365 3.365 0 0 1-1.661 1.766l-.656.324-4.052.027-4.048.031-.139-.24Z"/><defs><linearGradient id="a" x1="8.766" x2="31.362" y1="26.743" y2="24.197" gradientUnits="userSpaceOnUse"><stop stop-color="#EEF7FE"/><stop offset="1" stop-color="#1E97D0"/></linearGradient><linearGradient id="b" x1="6.073" x2="10.535" y1="23.854" y2="28.222" gradientUnits="userSpaceOnUse"><stop stop-color="#D6E9F7"/><stop offset="1" stop-color="#48A2D7"/></linearGradient><linearGradient id="c" x1="15.216" x2="29.721" y1="32.935" y2="29.829" gradientUnits="userSpaceOnUse"><stop stop-color="#D4EAF7"/><stop offset="1" stop-color="#1493C5"/></linearGradient><linearGradient id="d" x1="12.026" x2="16.402" y1="29.543" y2="34.657" gradientUnits="userSpaceOnUse"><stop stop-color="#D9EBF7"/><stop offset="1" stop-color="#318ABB"/></linearGradient><linearGradient id="e" x1="21.988" x2="28.071" y1="38.698" y2="35.758" gradientUnits="userSpaceOnUse"><stop stop-color="#9DC4DF"/><stop offset="1" stop-color="#137EAB"/></linearGradient><linearGradient id="f" x1="19.056" x2="23.479" y1="35.855" y2="41.039" gradientUnits="userSpaceOnUse"><stop stop-color="#DEEEF8"/><stop offset="1" stop-color="#3586B3"/></linearGradient><linearGradient id="g" x1="29.439" x2="29.439" y1="40.78" y2="35.6" gradientUnits="userSpaceOnUse"><stop stop-color="#646368"/><stop offset="1" stop-color="#646368"/></linearGradient><linearGradient id="h" x1="31.084" x2="31.084" y1="34.368" y2="29.323" gradientUnits="userSpaceOnUse"><stop stop-color="#636267"/><stop offset="1" stop-color="#646368"/></linearGradient><linearGradient id="i" x1="32.668" x2="32.668" y1="28.268" y2="23.139" gradientUnits="userSpaceOnUse"><stop stop-color="#6B6A6F"/><stop offset="1" stop-color="#EAEBED"/></linearGradient></defs></svg>
